**kern	**silbe
*ICvox	*
*G:	*
*M4/4	*
*clefF4	*
r;	.
=1	=1
1r	.
=2	=2
1r	.
=3	=3
1r	.
=4	=4
1r	.
=5	=5
1r	.
=6	=6
1r	.
=7	=7
1r	.
=8	=8
1r	.
=9	=9
1r	.
=10	=10
1r	.
=11	=11
1r	.
=12	=12
1r	.
=13	=13
1r	.
=14	=14
1r	.
=15	=15
1r	.
=16	=16
1r	.
=17	=17
4r	.
16r	.
8B	May-
16c	-be
[4d	I
8d]	_
16c	did-
16B	-n't
=18	=18
8.B	treat
[16A	you
4A]	...
2r	.
=19	=19
4r	.
12r	.
12G	quite
12A	as
[4B	good
12B]	_
12A	as
12G	I
=20	=20
8F#	should
[8E	_
4E_	_
8E]	_
8r	.
4r	.
=21	=21
4r	.
12r	.
12B	May-
12c	-be
[4d	I
12d]	_
12c	did-
12B	-n't
=22	=22
8.B	love
[16A	you
4A_	_
4A]	...
4r	.
=23	=23
4r	.
12r	.
12G	quite
12A	as
6B	of-
6A	-ten
8G	as
[24F#	I
=24	=24
8F#]	_
16G	could
16F#	_
[4E	_
4E]	_
4r	.
=25	=25
4r	.
12r	.
12c	Lit-
12d	-tle
8.e	things
[16d	I
12d]	_
12c	should
12B	have
=26	=26
8r	.
8B	said
8G	and
8Aq	_
[8B	done,
4B]	_
4r	.
=27	=27
4r	.
16r	.
8.c	I
8c	ne-
8B	-ver
8A	took
8G	the
=28	=28
16B	time
16A	_
16G	_
[16A	_
2A]	_
4r	.
=29	=29
4r	.
8A	You
8A	are
8B	al-
8B	-ways
8c	on
8c	my
=30	=30
8cq	_
2.d	mind!
4r	.
=31	=31
4r	.
8A	You
16A	are
[16c	al
8c]	_
8c	ways
8B	on
[8B	my
=32	=32
8B]	_
[8G	mind
2G]	_
4r	.
=33	=33
4r	.
16r	.
8B	May-
16c	-be
[4d	I
8d]	_
16c	did-
16B	-n't
=34	=34
4B	hold
2A	you...
4r	.
=35	=35
4r	.
8G	all
8A	those
8B	lone-
8A	-ly,
8.G	lone-
[16F#	-ly
=36	=36
8F#]	_
16G	times
16F#	_
2E	_
4r	.
=37	=37
4r	.
12r	.
12B	And
12c	I
4d	guess
12c	I
12B	ne-
[12B	-ver
=38	=38
8B]	_
8B	told
8A	_
[8A	you
4A]	...
4r	.
=39	=39
8r	.
[8G	I'm
8G]	_
8A	so
8B	hap-
8A	-py
8G	that
8F#	you're
=40	=40
16G	mine
16F#	_
[8E	_
2E]	_
4r	.
=41	=41
4r	.
12r	.
12c	If
12d	I
6e	made
6d	you
8c	feel
[24B	_
=42	=42
8B]	_
8B	se-
8G	-cond
8Aq	_
[8B	best,
4.B]	_
8r	.
=43	=43
8r	.
[8A	I'm
16A]	_
8.B	so
8c	sor-
8B	-ry
8A	I
[8G	was
=44	=44
8G]	_
24B	blind
24A	_
24G	_
2A	_
4r	.
=45	=45
4r	.
8A	You
8A	are
8B	al-
8B	-ways
8c	on
[8c	my
=46	=46
8c]	_
[8d	mind!
4d]	_
2r	.
=47	=47
4r	.
8A	You
16A	are
[16c	al-
8c]	_
8c	-ways
8B	on
[8B	my
=48	=48
8B]	_
[8G	mind
2G]	_
4r	.
=49	=49
8cq	_
2.d	Tell
4e	_
=50	=50
2G	me...
2r	.
=51	=51
8c	tell
8B	me
8A	that
8G	your
6c	sweet
6B	love
12A	has-
[12G	-n't
=52	=52
8G]	_
[8A	_
2A]	died.
4r	.
=53	=53
2.d	Give
4e	_
=54	=54
[2G	me
8G]	...
8r	.
4r	.
=55	=55
8c	one
8B	more
8A	chance
8G	to
8c	keep
[8B	you
8B]	_
16A	sa-
[16G	-tis
=56	=56
8G]	_
[8A	fied,
2A]	_
8r	.
[8B	sa
=57	=57
8B]	_
8G	tis-
[2G	-fied
8G]	_
8r	.
=58	=58
1r	.
=59	=59
1r	.
=60	=60
1r	.
=61	=61
1r	.
=62	=62
1r	.
=63	=63
1r	.
=64	=64
1r	.
=65	=65
4r	.
16r	.
16c	Lit-
8d	-tle
6e	things
6d	I
12c	should
[12B	have
=66	=66
8B]	_
8B	said
8G	and
[8B	done,
4B]	_
4r	.
=67	=67
4r	.
16r	.
8.c	I
8c	ne-
8B	-ver
8A	took
8G	the
=68	=68
16B	time
16A	_
16G	_
[16A	_
4A_	_
8A]	_
8r	.
4r	.
=69	=69
4r	.
8A	You
8A	are
8B	al-
8B	-ways
8c	on
8c	my
=70	=70
8cq	_
2.d	mind!
4r	.
=71	=71
4r	.
8A	You
16A	are
[16c	al
6c]	_
6c	ways
8B	on
[24B	my
=72	=72
8B]	_
[8G	mind
2G]	_
4r	.
=73	=73
8cq	_
2.d	Tell
4e	_
=74	=74
2G	me...
2r	.
=75	=75
8c	tell
8B	me
8A	that
8G	your
6c	sweet
6B	love
12A	has-
[12G	-n't
=76	=76
8G]	_
[8A	died
2A]	_
4r	.
=77	=77
2.d	Give
4e	_
=78	=78
[2G	me
8G]	...
8r	.
4r	.
=79	=79
8c	one
8B	more
8A	chance
8G	to
8c	keep
[8B	you
8B]	_
16A	sa-
[16G	-tis
=80	=80
8G]	_
[8A	fied
2A]	_
4r	.
=81	=81
4r	.
8A	You
8A	are
8B	al-
8B	-ways
8c	on
[8c	my
=82	=82
8c]	_
[8d	mind!
4d]	_
2r	.
=83	=83
4r	.
8A	You
16A	are
[16c	al-
8c]	_
8c	-ways
8B	on
[8B	my
=84	=84
8B]	_
[8G	mind
2G]	_
4r	.
=85	=85
4r	.
8A	You
8A	are
8B	al-
8B	-ways
8c	on
[8c	my
=86	=86
8c]	_
[8d	mind!
2d]	_
4r	.
=87	=87
4r	.
8A	You
16A	are
[16c	al
8c]	_
8c	ways
8B	on
[8B	my
=88	=88
8B]	_
[8G	mind.
2G]	_
4r	.
=89	=89
4r	.
8A	You
8A	are
8B	al-
8B	-ways
8c	on
[8c	my
=90	=90
8c]	_
[8d	mind!
2d]	_
4r	.
=91	=91
4r	.
8A	You
16A	are
[16c	al
8c]	_
8c	ways
8B	on
[8B	my
=92	=92
8B]	_
[8G	mind
2G]	_
4r	.
=93	=93
1r	.
=94	=94
1r	.
=95	=95
1r	.
=96	=96
1r	.
=97	=97
4r	.
16r	.
8B	May-
16c	-be
[4d	I
8d]	_
16c	did-
16B	-n't
=98	=98
8.B	treat
[16A	you
4A]	...
2r	.
=99	=99
4r	.
12r	.
12G	quite
12A	as
[4B	good
12B]	_
12A	as
[12G	I
=100	=100
8G]	_
8F#	should
2E	_
4r	.
=101	=101
4r	.
12r	.
12B	May-
12c	-be
[4d	I
12d]	_
12c	didn-
12B	-n't
=102	=102
8.B	love
[16A	you
4A_	_
4A]	...
4r	.
=103	=103
8r	.
8G	quite
8A	as
[8B	of
8B]	_
8A	ten
8.G	as
[16F#	I
=104	=104
8F#]	_
16G	could
16F#	_
2E	_
4r	.
=105	=105
4r	.
16r	.
8B	May-
16c	-be
[4d	I
8d]	_
16c	did-
16B	-n't
=106	=106
4B	hold
2A	you...
4r	.
=107	=107
8r	.
8G	all
8A	those
[8B	lone
8B]	_
8A	ly,
8.G	lone-
[16F#	-ly
=108	=108
8F#]	_
16G	times
16F#	_
2E	_
4r	.
=109	=109
8r	.
8G	And
8d	I
[8d	guess
8d]	_
8c	I
8B	ne-
8B	-ver
=110	=110
4B	told
2.A	you...
=111	=111
6r	.
6G	I'm
6A	so
8B	hap-
8A	-py
8G	that
8F#	you're
=112	=112
16G	mine
16F#	_
[8E	_
2E]	_
4r	.
=113	=113
1r	.
=114	=114
1r	.
=115	=115
1r	.
=116	=116
1r	.
=117	=117
4r	.
16r	.
8B	May-
16c	-be
[2d	I
=118	=118
2d_	_
8d]	_
8e	did-
4B	-n't
=119	=119
8d	love
[8d	you!
2.d]	_
=120	=120
1r	.
r;	.
r;	.
*-	*-
!!!ENC: Nathaniel Condit-Schultz